packages/stories-app/public/flags/flag_nap.svg

<?xml version="1.0" encoding="UTF-8" standalone="no"?>
<svg
   xmlns:dc="http://purl.org/dc/elements/1.1/"
   xmlns:cc="http://creativecommons.org/ns#"
   xmlns:rdf="http://www.w3.org/1999/02/22-rdf-syntax-ns#"
   xmlns:svg="http://www.w3.org/2000/svg"
   xmlns="http://www.w3.org/2000/svg"
   xmlns:sodipodi="http://sodipodi.sourceforge.net/DTD/sodipodi-0.dtd"
   xmlns:inkscape="http://www.inkscape.org/namespaces/inkscape"
   width="82"
   height="70"
   viewBox="0 0 82 70"
   version="1.1"
   id="svg44"
   sodipodi:docname="flag_nap.svg"
   style="fill:none"
   inkscape:version="0.92.5 (2060ec1f9f, 2020-04-08)">
  <metadata
     id="metadata50">
    <rdf:RDF>
      <cc:Work
         rdf:about="">
        <dc:format>image/svg+xml</dc:format>
        <dc:type
           rdf:resource="http://purl.org/dc/dcmitype/StillImage" />
        <dc:title></dc:title>
      </cc:Work>
    </rdf:RDF>
  </metadata>
  <defs
     id="defs48" />
  <sodipodi:namedview
     pagecolor="#ffffff"
     bordercolor="#666666"
     borderopacity="1"
     objecttolerance="10"
     gridtolerance="10"
     guidetolerance="10"
     inkscape:pageopacity="0"
     inkscape:pageshadow="2"
     inkscape:window-width="1920"
     inkscape:window-height="1043"
     id="namedview46"
     showgrid="false"
     inkscape:zoom="7.6129032"
     inkscape:cx="46.976751"
     inkscape:cy="23.334955"
     inkscape:window-x="1920"
     inkscape:window-y="0"
     inkscape:window-maximized="1"
     inkscape:current-layer="svg44" />
  <g
     id="g4813"
     transform="translate(2,2)">
    <path
       id="path2"
       d="M 61.437,2 H 16.563 C 11.6282,2 9.86682,2.58451 8.07026,3.54532 6.11953,4.58859 4.58859,6.11953 3.54532,8.07026 2.58451,9.86682 2,11.6282 2,16.563 v 28.874 c 0,4.9348 0.58451,6.6962 1.54532,8.4927 1.04327,1.9508 2.57421,3.4817 4.52494,4.525 C 9.86682,59.4155 11.6282,60 16.563,60 h 44.874 c 4.9348,0 6.6962,-0.5845 8.4927,-1.5453 1.9508,-1.0433 3.4817,-2.5742 4.525,-4.525 C 75.4155,52.1332 76,50.3718 76,45.437 V 16.563 C 76,11.6282 75.4155,9.86682 74.4547,8.07026 73.4114,6.11953 71.8805,4.58859 69.9297,3.54532 68.1332,2.58451 66.3718,2 61.437,2 Z"
       inkscape:connector-curvature="0"
       style="fill:#ff4b4b;stroke:#ffffff;stroke-width:4" />
    <rect
       id="rect4"
       height="54"
       width="26"
       y="4"
       x="13"
       style="fill:#ffc300" />
    <rect
       id="rect6"
       rx="9"
       height="54"
       width="35"
       y="4"
       x="4"
       style="fill:#ffc300" />
    <path
       id="path8"
       d="m 24.5014,25.2336 c -0.2243,1.0189 -0.3426,2.0775 -0.3426,3.1638 0,1.3426 0.1807,2.6431 0.519,3.8783 m 5.1691,7.7092 c 2.4761,1.9169 5.5834,3.0577 8.9571,3.0577 3.881,0.5178 7.1339,2.4782 9.7585,5.8813"
       inkscape:connector-curvature="0"
       style="clip-rule:evenodd;fill:#78c800;fill-rule:evenodd" />
    <path
       id="path10"
       d="m 24.5014,25.2336 c -0.2243,1.0189 -0.3426,2.0775 -0.3426,3.1638 0,1.3426 0.1807,2.6431 0.519,3.8783 m 5.1691,7.7092 c 2.4761,1.9169 5.5834,3.0577 8.9571,3.0577 3.881,0.5178 7.1339,2.4782 9.7585,5.8813"
       inkscape:connector-curvature="0"
       style="stroke:#78c800;stroke-width:2.64515996;stroke-linecap:round;stroke-linejoin:round" />
    <path
       id="path12"
       d="m 26.8276,20.1105 0.0506,-0.5785 c 0.3106,-3.5495 3.4398,-6.1753 6.9894,-5.8647 l 0.5784,0.0506 -0.0506,0.5784 c -0.3105,3.5496 -3.4398,6.1753 -6.9893,5.8648 z"
       inkscape:connector-curvature="0"
       style="clip-rule:evenodd;fill:#78c800;fill-rule:evenodd" />
    <path
       id="path14"
       d="m 23.467,27.2853 -0.6016,-0.4872 c -2.7691,-2.2424 -3.1961,-6.3049 -0.9537,-9.074 l 0.4872,-0.6017 0.6016,0.4872 c 2.7691,2.2424 3.1961,6.3049 0.9538,9.074 z"
       inkscape:connector-curvature="0"
       style="clip-rule:evenodd;fill:#78c800;fill-rule:evenodd" />
    <path
       id="path16"
       d="m 29.8726,40.9751 -0.7363,0.2392 c -3.3888,1.1011 -7.0285,-0.7534 -8.1296,-4.1422 l -0.2392,-0.7363 0.7363,-0.2392 c 3.3887,-1.1011 7.0285,0.7535 8.1295,4.1422 z"
       inkscape:connector-curvature="0"
       style="clip-rule:evenodd;fill:#78c800;fill-rule:evenodd" />
    <path
       id="path18"
       d="m 30.9778,40.8861 0.3634,-0.6836 c 1.6728,-3.146 0.4785,-7.0525 -2.6675,-8.7252 l -0.6836,-0.3635 -0.3635,0.6836 c -1.6728,3.146 -0.4784,7.0525 2.6676,8.7252 z"
       inkscape:connector-curvature="0"
       style="clip-rule:evenodd;fill:#78c800;fill-rule:evenodd" />
    <path
       id="path20"
       d="m 23.046,28.5691 0.1078,-0.7667 c 0.4959,-3.5284 3.7582,-5.9868 7.2867,-5.4909 l 0.7666,0.1077 -0.1077,0.7667 c -0.4959,3.5285 -3.7583,5.9868 -7.2867,5.4909 z"
       inkscape:connector-curvature="0"
       style="clip-rule:evenodd;fill:#78c800;fill-rule:evenodd" />
    <path
       id="path22"
       d="m 53.4987,25.2336 c 0.2243,1.0189 0.3426,2.0775 0.3426,3.1638 0,1.3426 -0.1807,2.6431 -0.519,3.8783 m -5.169,7.7092 c -2.4762,1.9169 -5.5834,3.0577 -8.9572,3.0577 -3.881,0.5178 -7.1339,2.4782 -9.7585,5.8813"
       inkscape:connector-curvature="0"
       style="clip-rule:evenodd;fill:#78c800;fill-rule:evenodd" />
    <path
       id="path24"
       d="m 53.4987,25.2336 c 0.2243,1.0189 0.3426,2.0775 0.3426,3.1638 0,1.3426 -0.1807,2.6431 -0.519,3.8783 m -5.169,7.7092 c -2.4762,1.9169 -5.5834,3.0577 -8.9572,3.0577 -3.881,0.5178 -7.1339,2.4782 -9.7585,5.8813"
       inkscape:connector-curvature="0"
       style="stroke:#78c800;stroke-width:2.64515996;stroke-linecap:round;stroke-linejoin:round" />
    <path
       id="path26"
       d="M 51.1725,20.1105 51.1219,19.532 c -0.3106,-3.5495 -3.4398,-6.1753 -6.9894,-5.8647 l -0.5784,0.0506 0.0506,0.5784 c 0.3105,3.5496 3.4398,6.1753 6.9893,5.8648 z"
       inkscape:connector-curvature="0"
       style="clip-rule:evenodd;fill:#78c800;fill-rule:evenodd" />
    <path
       id="path28"
       d="m 54.5331,27.2853 0.6016,-0.4872 c 2.7691,-2.2424 3.1961,-6.3049 0.9538,-9.074 l -0.4873,-0.6017 -0.6016,0.4872 c -2.7691,2.2424 -3.1961,6.3049 -0.9537,9.074 z"
       inkscape:connector-curvature="0"
       style="clip-rule:evenodd;fill:#78c800;fill-rule:evenodd" />
    <path
       id="path30"
       d="m 48.1276,40.9751 0.7363,0.2392 c 3.3887,1.1011 7.0284,-0.7534 8.1295,-4.1422 l 0.2392,-0.7363 -0.7363,-0.2392 c -3.3887,-1.1011 -7.0284,0.7535 -8.1295,4.1422 z"
       inkscape:connector-curvature="0"
       style="clip-rule:evenodd;fill:#78c800;fill-rule:evenodd" />
    <path
       id="path32"
       d="m 47.0223,40.8861 -0.3634,-0.6836 c -1.6728,-3.146 -0.4785,-7.0525 2.6676,-8.7252 l 0.6835,-0.3635 0.3635,0.6836 c 1.6728,3.146 0.4785,7.0525 -2.6676,8.7252 z"
       inkscape:connector-curvature="0"
       style="clip-rule:evenodd;fill:#78c800;fill-rule:evenodd" />
    <path
       id="path34"
       d="M 54.9541,28.5691 54.8464,27.8024 C 54.3505,24.274 51.0881,21.8156 47.5596,22.3115 l -0.7666,0.1077 0.1077,0.7667 c 0.4959,3.5285 3.7583,5.9868 7.2867,5.4909 z"
       inkscape:connector-curvature="0"
       style="clip-rule:evenodd;fill:#78c800;fill-rule:evenodd" />
    <path
       id="path36"
       d="m 43.1351,21 c 0.9916,0 1.7849,0.79 1.7849,1.75 0,0.79 0,7.06 0,7.85 0,3.22 -2.6616,5.83 -5.96,5.83 -3.2879,0 -5.96,-2.61 -5.96,-5.83 0,-0.79 0,-7.06 0,-7.85 0,-0.96 0.8037,-1.75 1.7953,-1.75 1.6701,0 7.5048,0 8.3398,0 z"
       inkscape:connector-curvature="0"
       style="fill:#ff4b4b" />
    <path
       id="path38"
       d="m 43.1351,21 c 0.9916,0 1.7849,0.79 1.7849,1.75 0,0.79 0,7.06 0,7.85 0,3.22 -2.6616,5.83 -5.96,5.83 -3.2879,0 -5.96,-2.61 -5.96,-5.83 0,-0.79 0,-7.06 0,-7.85 0,-0.96 0.8037,-1.75 1.7953,-1.75 1.6701,0 7.5048,0 8.3398,0 z"
       inkscape:connector-curvature="0"
       style="stroke:#ffffff;stroke-width:0.5" />
    <path
       id="path40"
       d="M 44.92,28.34 V 21 H 33 v 7.34 z"
       inkscape:connector-curvature="0"
       style="fill:#ffc800" />
    <path
       id="path42"
       d="M 44.92,28.34 V 21 H 33 v 7.34 z"
       inkscape:connector-curvature="0"
       style="stroke:#ffffff;stroke-width:0.5" />
  </g>
</svg>

<svg width="78" height="62" viewBox="0 0 78 62" fill="none" xmlns="http://www.w3.org/2000/svg">
<path d="M61.437 2H16.563C11.6282 2 9.86682 2.58451 8.07026 3.54532C6.11953 4.58859 4.58859 6.11953 3.54532 8.07026C2.58451 9.86682 2 11.6282 2 16.563V45.437C2 50.3718 2.58451 52.1332 3.54532 53.9297C4.58859 55.8805 6.11953 57.4114 8.07026 58.4547C9.86682 59.4155 11.6282 60 16.563 60H61.437C66.3718 60 68.1332 59.4155 69.9297 58.4547C71.8805 57.4114 73.4114 55.8805 74.4547 53.9297C75.4155 52.1332 76 50.3718 76 45.437V16.563C76 11.6282 75.4155 9.86682 74.4547 8.07026C73.4114 6.11953 71.8805 4.58859 69.9297 3.54532C68.1332 2.58451 66.3718 2 61.437 2Z" fill="#FF4B4B" stroke="white" stroke-width="4"/>
<rect x="13" y="4" width="26" height="54" fill="#FFC300"/>
<rect x="4" y="4" width="35" height="54" rx="9" fill="#FFC300"/>
<path fill-rule="evenodd" clip-rule="evenodd" d="M24.5014 25.2336C24.2771 26.2525 24.1588 27.3111 24.1588 28.3974C24.1588 29.74 24.3395 31.0405 24.6778 32.2757M29.8469 39.9849C32.323 41.9018 35.4303 43.0426 38.804 43.0426C42.685 43.5604 45.9379 45.5208 48.5625 48.9239" fill="#78C800"/>
<path d="M24.5014 25.2336C24.2771 26.2525 24.1588 27.3111 24.1588 28.3974C24.1588 29.74 24.3395 31.0405 24.6778 32.2757M29.8469 39.9849C32.323 41.9018 35.4303 43.0426 38.804 43.0426C42.685 43.5604 45.9379 45.5208 48.5625 48.9239" stroke="#78C800" stroke-width="2.64516" stroke-linecap="round" stroke-linejoin="round"/>
<path fill-rule="evenodd" clip-rule="evenodd" d="M26.8276 20.1105L26.8782 19.532C27.1888 15.9825 30.318 13.3567 33.8676 13.6673L34.446 13.7179L34.3954 14.2963C34.0849 17.8459 30.9556 20.4716 27.4061 20.1611L26.8276 20.1105Z" fill="#78C800"/>
<path fill-rule="evenodd" clip-rule="evenodd" d="M23.467 27.2853L22.8654 26.7981C20.0963 24.5557 19.6693 20.4932 21.9117 17.7241L22.3989 17.1224L23.0005 17.6096C25.7696 19.852 26.1966 23.9145 23.9543 26.6836L23.467 27.2853Z" fill="#78C800"/>
<path fill-rule="evenodd" clip-rule="evenodd" d="M29.8726 40.9751L29.1363 41.2143C25.7475 42.3154 22.1078 40.4609 21.0067 37.0721L20.7675 36.3358L21.5038 36.0966C24.8925 34.9955 28.5323 36.8501 29.6333 40.2388L29.8726 40.9751Z" fill="#78C800"/>
<path fill-rule="evenodd" clip-rule="evenodd" d="M30.9778 40.8861L31.3412 40.2025C33.014 37.0565 31.8197 33.15 28.6737 31.4773L27.9901 31.1138L27.6266 31.7974C25.9538 34.9434 27.1482 38.8499 30.2942 40.5226L30.9778 40.8861Z" fill="#78C800"/>
<path fill-rule="evenodd" clip-rule="evenodd" d="M23.046 28.5691L23.1538 27.8024C23.6497 24.274 26.912 21.8156 30.4405 22.3115L31.2071 22.4192L31.0994 23.1859C30.6035 26.7144 27.3411 29.1727 23.8127 28.6768L23.046 28.5691Z" fill="#78C800"/>
<path fill-rule="evenodd" clip-rule="evenodd" d="M53.4987 25.2336C53.723 26.2525 53.8413 27.3111 53.8413 28.3974C53.8413 29.74 53.6606 31.0405 53.3223 32.2757M48.1533 39.9849C45.6771 41.9018 42.5699 43.0426 39.1961 43.0426C35.3151 43.5604 32.0622 45.5208 29.4376 48.9239" fill="#78C800"/>
<path d="M53.4987 25.2336C53.723 26.2525 53.8413 27.3111 53.8413 28.3974C53.8413 29.74 53.6606 31.0405 53.3223 32.2757M48.1533 39.9849C45.6771 41.9018 42.5699 43.0426 39.1961 43.0426C35.3151 43.5604 32.0622 45.5208 29.4376 48.9239" stroke="#78C800" stroke-width="2.64516" stroke-linecap="round" stroke-linejoin="round"/>
<path fill-rule="evenodd" clip-rule="evenodd" d="M51.1725 20.1105L51.1219 19.532C50.8113 15.9825 47.6821 13.3567 44.1325 13.6673L43.5541 13.7179L43.6047 14.2963C43.9152 17.8459 47.0445 20.4716 50.594 20.1611L51.1725 20.1105Z" fill="#78C800"/>
<path fill-rule="evenodd" clip-rule="evenodd" d="M54.5331 27.2853L55.1347 26.7981C57.9038 24.5557 58.3308 20.4932 56.0885 17.7241L55.6012 17.1224L54.9996 17.6096C52.2305 19.852 51.8035 23.9145 54.0459 26.6836L54.5331 27.2853Z" fill="#78C800"/>
<path fill-rule="evenodd" clip-rule="evenodd" d="M48.1276 40.9751L48.8639 41.2143C52.2526 42.3154 55.8923 40.4609 56.9934 37.0721L57.2326 36.3358L56.4963 36.0966C53.1076 34.9955 49.4679 36.8501 48.3668 40.2388L48.1276 40.9751Z" fill="#78C800"/>
<path fill-rule="evenodd" clip-rule="evenodd" d="M47.0223 40.8861L46.6589 40.2025C44.9861 37.0565 46.1804 33.15 49.3265 31.4773L50.01 31.1138L50.3735 31.7974C52.0463 34.9434 50.852 38.8499 47.7059 40.5226L47.0223 40.8861Z" fill="#78C800"/>
<path fill-rule="evenodd" clip-rule="evenodd" d="M54.9541 28.5691L54.8464 27.8024C54.3505 24.274 51.0881 21.8156 47.5596 22.3115L46.793 22.4192L46.9007 23.1859C47.3966 26.7144 50.659 29.1727 54.1874 28.6768L54.9541 28.5691Z" fill="#78C800"/>
<path d="M43.1351 21C44.1267 21 44.92 21.79 44.92 22.75C44.92 23.54 44.92 29.81 44.92 30.6C44.92 33.82 42.2584 36.43 38.96 36.43C35.6721 36.43 33 33.82 33 30.6C33 29.81 33 23.54 33 22.75C33 21.79 33.8037 21 34.7953 21C36.4654 21 42.3001 21 43.1351 21Z" fill="#FF4B4B"/>
<path d="M43.1351 21C44.1267 21 44.92 21.79 44.92 22.75C44.92 23.54 44.92 29.81 44.92 30.6C44.92 33.82 42.2584 36.43 38.96 36.43C35.6721 36.43 33 33.82 33 30.6C33 29.81 33 23.54 33 22.75C33 21.79 33.8037 21 34.7953 21C36.4654 21 42.3001 21 43.1351 21Z" stroke="white" stroke-width="0.5"/>
<path d="M44.92 28.34V21H33V28.34H44.92Z" fill="#FFC800"/>
<path d="M44.92 28.34V21H33V28.34H44.92Z" stroke="white" stroke-width="0.5"/>
</svg>
